X:160
T:Bedding of the Bride, The
B:The Athole Collection
Z:Nigel Gatherer
M:4/4
L:1/8
K:D
F|DAA>G FDAF|DAA>G E=CCE|DAA<F GABG|AB=cG e=CC:|
g|fddA FDD=f|e=ccG E=CCg|fddA FAdB|=cBcG E=CC:|
f|d2 da fdad|Adda e=cge|d2 da fdad|AB=cG E=CC:|
g|fdAd FDD=f|e=cGc E=CCg|fdcd AdFd|E=cGc E=CC:|
<end>
<start>
